X: 0791
T: MARGARET STEWART'S REEL
B: Oliver Ditson "The Boston Collection of Instrumental Music" 1910 p.79 #1
F: http://conquest.imslp.info/files/imglnks/usimg/8/8f/IMSLP175643-PMLP309456-bostoncollection00bost_bw.pdf
%: 2012 John Chambers <jc:trillian.mit.edu>
M: 4/4
L: 1/8
K: Bm
g | Tf2Bf dBfB | f/^g/a ef cAec | Tf2Bf dBfd | ecac B/B/B B :|
A | FB TB>c dBcA | EA Ac  Tc>dec | FB B>c dBdb | a>fec B/B/B TB2 |
    FB  B>c dBcA | EA A>B Tc>dec | dBdb cAce | dfec B/B/B B |]

%%sep 1 1 500
%%sep 1 1 500
